X:1
T:6 Lieder, Op.9
T:Der Rosenkranz
T:6 Lieder, Op.9
T:3. Der Rosenkranz
T:Fanny (Mendelssohn) Hensel
T:Johann Heinrich Voss
T:OpenScore (CC0)
T:OpenScore (CC0)
T:OpenScore (CC0)
C:Fanny (Mendelssohn) Hensel
Z:Johann Heinrich Voss
Z:OpenScore (CC0)
%%score ( 1 2 ) { ( 3 5 ) | ( 4 6 ) }
L:1/8
M:6/8
K:E
V:1 treble nm="Voice"
V:2 treble 
V:3 treble nm="Piano"
V:5 treble 
V:4 bass 
V:6 bass 
V:1
 G2 G A3/2 G/ F | (B2 e) B A G | (cBA e3-) | e B A F2 z | G2 G A3/2 G/ F | (cB) A (fe) d | %6
w: 1. An des Bee\-tes * Um\-|bu- * schung brach sie|Ro- * * *|* sen zum Kranz,|feu- rig prang- te die|Mi- * schung  rings * im|
w: 2. Zwar den Gra\-zi\- * en|hei\-- * lig, * *|sang * sie, blü-|* het ihr dort,|war- um a- ber so|ei- * * lig * *|
 (c B2-) (B3 | B) ^A =A F2 z | B2 B B3/2 A/ G | e2 c A2 z | B2 B B3/2 A/ G | e2 c A2 z | z6 | z6 :| %14
w: thau- * *|* i- gen Glanz.|Ros' auf Ros' in das|Körb- chen sank,|pur- pur- roth und wie|Sil\-- ber blank.|||
w: |* und ver- dorrt.|Die so- e- ben ge-|öff- net stehn,|wer- den bald in dem|Win- de wehn.|||
 G2 G A3/2 G/ F | (B2 e) B2 z | (cB) A e3- | e B A F2 z | G2 G A3/2 G/ F | (dc) ^B (fe) d | %20
w: 3. Du roth- strei- fi- ges|Knöpf\- * chen,|zit\- * ternd schaust|_ du dein Grab,|und ein per- len- des|Tröpf- * chen hängt * als|
w: ||||||
 (e c2-) c3- | c G F E2 z | B2 B B3/2 A/ G | e2 c A2 z | B2 B B3/2 A/ G | e2 c A2 z | z6 | z6 | %28
w: Thrä- * *|* ne her\- ab.|Bleib, du sollst in dem|Son- nen- schein|dich des flüch- ti- gen|Le- bens freun.|||
w: ||||||||
 G2 G A3/2 G/ F | (B2 e) B A G | (cBA e3-) | e B A F3 | G2 G A3/2 G/ F | (cB) A (fe) d | %34
w: 4. Mit tief- sin- ni- ~ger|Säum- * niss flocht das|Mäd- * * *|* chen den Kranz,|in der Lau- be Ge\-|heim\- * niss Lieb' * und|
w: ||||||
 (c B2-) (B3 | B) ^A =A F2 z | B z B B3/2 A/ G | e2 c A2 z | B2 B B3/2 A/ G | (f6 | %40
w: Zärt- * *|* lich- keit ganz.|Als auf's Haupt sie das|Kränz- chen nahm,|wohl mir Se- li- gen,|wohl|
w: ||||||
 (a)f) d (cB) A | G2 z z2 z | z6 |] %43
w: _ _ mir, dass * ich|kam.||
w: |||
V:2
 x6 | x3 B z z | (cB) A x3 | x6 | x6 | (cBA) A2 z | B3- B2 B | B x5 | x6 | x6 | x6 | x6 | x6 | %13
w: |||||||||||||
w: ||||||ab- * ge-|blüht||||||
 x6 :| x6 | x6 | x6 | x6 | x6 | x6 | x6 | x6 | x6 | x6 | x6 | x6 | x6 | x6 | x6 | x6 | x6 | x6 | %32
w: |||||||||||||||||||
w: |||||||||||||||||||
 x6 | x6 | x6 | x6 | x6 | x6 | x6 | x6 | x6 | x6 | x6 |] %43
w: |||||||||||
w: |||||||||||
V:3
 [EG]2 [EG] [DA]>G[DF] | B2 e BAG | cBA edc | B[B,EB][CFA] [B,DF]3 | [B,G]2 [B,G] [A,CA]2 [A,CA] | %5
 cBA fed | [cea][Bdg][Acf] [GBe][FAd][EGc] | [DFB]2 [DF] [DF]2 z | [=DB]2 [DB] [DB]>AG | %9
 [CA]3 [^DA]2 z | [G,=DG]2 [G,DG] [G,DG]>[A,A][B,DB] | [CA]3 [^DA]2 [A,F] | [G,E]2 [A,C] E2 x | %13
 E6 :| [EG]2 [EG] [DA]>GF | [EB]2 e BAG | cBA edc | [EB][B,EB][CFA] [DF]2 z | %18
 [B,G]2 [B,G] [A,CA]2 [A,CA] | [^B,FA]2 G [DA]EF | [EG]^E[Fc] [EG][FA][=E^A] | %21
 [EG]2 [^B,D] [CE]2 z | [=DE]2 [DE] [DE]2 [DE] | [CA]3 [^DA]2 z | %24
 [G,=DG]2 [G,DG] [G,DG]>[A,A][B,DB] | [CA]3 [^DA]2 [A,F] | [G,E]2 [A,C] [G,B,E]2 [F,A,] | [G,E]6 | %28
 [EG]2 [EG] [DA]>GF | [EB]2 e BAG | cBA edc | B[B,EB][CFA] [DF]3 | [^B,G]2 [B,G] [CA]2 [CA] | %33
 [Dc]BA fed | [cea][Bdg][Acf] [GBe][FAd][EAe] | [DAf]2 [DF] [DF]2 z | %36
 [G,=DG]2 [G,DG] [G,D-G]>[A,DA][B,DB] | [CA]3 [B,^D]2 z | [Ee]2 [Ee] [Ee]2 [Ee] | %39
 [cea][Bdg][Acf] [GBe][FAd][EGc] | [DFB]6 | [EB]2 [A,C] [G,B,E]2 x | z6 |] %43
V:4
 [E,B,]2 [E,B,] [E,F,B,]>G,A, | [E,G,B,]3 =DCB, | A,3 CB,A, | G,[G,,G,][A,,F,] [B,,F,]3 | %4
 G,,3 F,,2 F,, | [B,,A,]G,F, DCB, | B,,3- B,,3- | B,,2 [B,,F,] [B,,A,]2 z | %8
 [E,G,]2 [E,G,] [E,G,]>A,B, | [E,A,]3 [E,F,B,]2 z | [E,,E,]2 [E,,E,] [E,,E,]>F,[E,G,] | %11
 [A,,A,]3 [B,,-F,]2 [B,,D,] | x3 [G,B,]2 [F,A,] | [E,G,]6 :| [E,B,]2 [E,B,] [E,F,B,]>G,A, | %15
 [E,G,B,]3 =DCB, | A,3 CB,A, | G,G,,A,, B,,2 z | G,,2 G,, F,,2 F,, | G,,3 ^B,3 | CB,A, G,F,^^F, | %21
 G,2 [G,,G,] [C,G,]2 z | [E,G,]2 [E,G,] [E,G,]>A,[E,B,] | [E,A,]3 [E,F,]2 z | %24
 [E,,E,]2 [E,,E,] [E,,E,]>F,[E,G,] | [A,,A,]3 [B,,-F,]2 [B,,D,] | [E,,E,]3 z2 B,, | E,6 | %28
 [E,B,]2 [E,B,] [E,F,B,]>G,A, | [E,G,B,]3 =DCB, | A,3 CB,A, | G,G,,A,, B,,3 | %32
 [G,,G,]2 [G,,G,] [F,,F,]2 [F,,F,] | A,G,F, DCB, | [B,,B,]6- | [B,,B,]2 [B,,F,] [B,,A,]2 z | %36
 [E,,E,]2 [E,,E,] [E,,E,]>F,[E,G,] | [E,A,]3 [E,F,]2 z | [E,G,=D]2 [E,G,D] [E,G,D]>A,[E,B,D] | %39
 [A,,A,]6 | [B,,B,]6 | [E,,E,]3- [E,,E,]2 [F,A,] | [E,G,E]6 |] %43
V:5
 x6 | E3- E3 | E4 x2 | x6 | x6 | D3 x3 | x6 | x6 | x6 | x6 | x6 | x6 | x6 | x6 :| x6 | x6 | %16
 x3 E3- | x6 | x6 | x6 | x6 | x6 | x6 | x6 | x6 | x6 | x6 | x6 | x6 | x6 | E3- E3 | x6 | x6 | x6 | %34
 x6 | x6 | x6 | x6 | x6 | x6 | x6 | x6 | x6 |] %43
V:6
 x6 | x6 | x6 | x6 | x6 | x6 | x6 | x6 | x6 | x6 | x6 | x6 | [E,,E,]3- [E,,E,]2 B,, | E,,6 :| x6 | %15
 x6 | x6 | x6 | x6 | x6 | x6 | x6 | x6 | x6 | x6 | x6 | x6 | E,,6 | x6 | x6 | x6 | x6 | x6 | %33
 B,,3 x3 | x6 | x6 | x6 | x6 | x6 | x6 | x6 | x5 B,, | E,,6 |] %43

